assets/tile.svg

<svg clip-rule="evenodd" fill-rule="evenodd" height="1024" image-rendering="optimizeQuality" shape-rendering="geometricPrecision" text-rendering="geometricPrecision" width="1024" xmlns="http://www.w3.org/2000/svg"><path d="m-.5-.5h1017c-198.577 9.90293-397.243 19.9029-596 30-31.014 1.034-62.014 2.3674-93 4-38.729 1.844-77.396 3.844-116 6-23.005.9002-46.005 1.9002-69 3-8.005.3574-16.005.8574-24 1.5-.544.7172-1.211 1.2172-2 1.5-4.32-.6658-8.82-.9991-13.5-1-14.8407.5837-29.674 1.2504-44.5 2-1.291 20.322-2.6243 40.6554-4 61-1.8328 31.325-3.4995 62.658-5 94-2.6212 31.814-4.7879 63.814-6.5 96-.8213 7.179-.6546 14.179.5 21-1.2219 2.562-1.8885 5.395-2 8.5-1.8122 28.829-3.4789 57.662-5 86.5-12.1377 199.444-24.471 398.777-37 598 0-337.333 0-674.667 0-1012z" fill="#f2ebdb"/><path d="m1016.5-.5h7v1c-19.9 321.152-39.401 642.485-58.5 964-321.272 19.535-642.439 39.2-963.5 59-.666667 0-1.333333 0-2 0 0-4 0-8 0-12 12.529-199.223 24.8623-398.556 37-598 128.333-127.667 256.333-255.667 384-384 198.757-10.0971 397.423-20.09707 596-30z" fill="#cdc9c0"/><path d="m1023.5.5v1023c-340.667 0-681.333 0-1022 0 321.061-19.8 642.228-39.465 963.5-59 19.099-321.515 38.6-642.848 58.5-964z" fill="#b7b3ac"/><path d="m736.5 26.5c62.668-.1667 125.334 0 188 .5-299.5 299.5-599 599-898.5 898.5-.6667-62.667-.6667-125.333 0-188 237.035-236.868 473.868-473.868 710.5-711z" fill="#d5d1c9"/><path d="m420.5 29.5c-127.667 128.333-255.667 256.333-384 384 1.5211-28.838 3.1878-57.671 5-86.5.1115-3.105.7781-5.938 2-8.5 94.667-95 189.333-190 284-285 30.986-1.6326 61.986-2.966 93-4z" fill="#e6e5e3"/><path d="m327.5 33.5c-94.667 95-189.333 190-284 285-1.1546-6.821-1.3213-13.821-.5-21 1.7121-32.186 3.8788-64.186 6.5-96 54.333-53.667 108.333-107.6667 162-162 38.604-2.156 77.271-4.156 116-6z" fill="#cdc9c0"/><path d="m211.5 39.5c-53.667 54.3333-107.667 108.333-162 162 1.5005-31.342 3.1672-62.675 5-94 11-10.6667 22-21.3333 33-32 7.6739.1664 15.341-.0003 23-.5 10.869-10.7016 21.535-21.5349 32-32.5 22.995-1.0998 45.995-2.0998 69-3z" fill="#e6e5e3"/><path d="m142.5 42.5c-10.465 10.9651-21.131 21.7984-32 32.5-7.659.4997-15.3261.6664-23 .5 9.6667-10 19.333-20 29-30 .789-.2828 1.456-.7828 2-1.5 7.995-.6426 15.995-1.1426 24-1.5z" fill="#fefefe"/><path d="m116.5 45.5c-9.667 10-19.3333 20-29 30-11 10.6667-22 21.3333-33 32 1.3757-20.3446 2.709-40.678 4-61 14.826-.7496 29.6593-1.4163 44.5-2 4.68.0009 9.18.3342 13.5 1z" fill="#cdc9c0"/></svg>

<?xml version="1.0" encoding="UTF-8"?>
<!DOCTYPE svg PUBLIC "-//W3C//DTD SVG 1.1//EN" "http://www.w3.org/Graphics/SVG/1.1/DTD/svg11.dtd">
<svg xmlns="http://www.w3.org/2000/svg" version="1.1" width="1024px" height="1024px" style="shape-rendering:geometricPrecision; text-rendering:geometricPrecision; image-rendering:optimizeQuality; fill-rule:evenodd; clip-rule:evenodd" xmlns:xlink="http://www.w3.org/1999/xlink">
<g><path style="opacity:1" fill="#f2ebdb" d="M -0.5,-0.5 C 338.5,-0.5 677.5,-0.5 1016.5,-0.5C 817.923,9.40293 619.257,19.4029 420.5,29.5C 389.486,30.534 358.486,31.8674 327.5,33.5C 288.771,35.344 250.104,37.344 211.5,39.5C 188.495,40.4002 165.495,41.4002 142.5,42.5C 134.495,42.8574 126.495,43.3574 118.5,44C 117.956,44.7172 117.289,45.2172 116.5,45.5C 112.18,44.8342 107.68,44.5009 103,44.5C 88.1593,45.0837 73.326,45.7504 58.5,46.5C 57.209,66.822 55.8757,87.1554 54.5,107.5C 52.6672,138.825 51.0005,170.158 49.5,201.5C 46.8788,233.314 44.7121,265.314 43,297.5C 42.1787,304.679 42.3454,311.679 43.5,318.5C 42.2781,321.062 41.6115,323.895 41.5,327C 39.6878,355.829 38.0211,384.662 36.5,413.5C 24.3623,612.944 12.029,812.277 -0.5,1011.5C -0.5,674.167 -0.5,336.833 -0.5,-0.5 Z"/></g>
<g><path style="opacity:1" fill="#cdc9c0" d="M 1016.5,-0.5 C 1018.83,-0.5 1021.17,-0.5 1023.5,-0.5C 1023.5,-0.166667 1023.5,0.166667 1023.5,0.5C 1003.6,321.652 984.099,642.985 965,964.5C 643.728,984.035 322.561,1003.7 1.5,1023.5C 0.833333,1023.5 0.166667,1023.5 -0.5,1023.5C -0.5,1019.5 -0.5,1015.5 -0.5,1011.5C 12.029,812.277 24.3623,612.944 36.5,413.5C 164.833,285.833 292.833,157.833 420.5,29.5C 619.257,19.4029 817.923,9.40293 1016.5,-0.5 Z"/></g>
<g><path style="opacity:1" fill="#b7b3ac" d="M 1023.5,0.5 C 1023.5,341.5 1023.5,682.5 1023.5,1023.5C 682.833,1023.5 342.167,1023.5 1.5,1023.5C 322.561,1003.7 643.728,984.035 965,964.5C 984.099,642.985 1003.6,321.652 1023.5,0.5 Z"/></g>
<g><path style="opacity:1" fill="#d5d1c9" d="M 736.5,26.5 C 799.168,26.3333 861.834,26.5 924.5,27C 625,326.5 325.5,626 26,925.5C 25.3333,862.833 25.3333,800.167 26,737.5C 263.035,500.632 499.868,263.632 736.5,26.5 Z"/></g>
<g><path style="opacity:1" fill="#e6e5e3" d="M 420.5,29.5 C 292.833,157.833 164.833,285.833 36.5,413.5C 38.0211,384.662 39.6878,355.829 41.5,327C 41.6115,323.895 42.2781,321.062 43.5,318.5C 138.167,223.5 232.833,128.5 327.5,33.5C 358.486,31.8674 389.486,30.534 420.5,29.5 Z"/></g>
<g><path style="opacity:1" fill="#cdc9c0" d="M 327.5,33.5 C 232.833,128.5 138.167,223.5 43.5,318.5C 42.3454,311.679 42.1787,304.679 43,297.5C 44.7121,265.314 46.8788,233.314 49.5,201.5C 103.833,147.833 157.833,93.8333 211.5,39.5C 250.104,37.344 288.771,35.344 327.5,33.5 Z"/></g>
<g><path style="opacity:1" fill="#e6e5e3" d="M 211.5,39.5 C 157.833,93.8333 103.833,147.833 49.5,201.5C 51.0005,170.158 52.6672,138.825 54.5,107.5C 65.5,96.8333 76.5,86.1667 87.5,75.5C 95.1739,75.6664 102.841,75.4997 110.5,75C 121.369,64.2984 132.035,53.4651 142.5,42.5C 165.495,41.4002 188.495,40.4002 211.5,39.5 Z"/></g>
<g><path style="opacity:1" fill="#fefefe" d="M 142.5,42.5 C 132.035,53.4651 121.369,64.2984 110.5,75C 102.841,75.4997 95.1739,75.6664 87.5,75.5C 97.1667,65.5 106.833,55.5 116.5,45.5C 117.289,45.2172 117.956,44.7172 118.5,44C 126.495,43.3574 134.495,42.8574 142.5,42.5 Z"/></g>
<g><path style="opacity:1" fill="#cdc9c0" d="M 116.5,45.5 C 106.833,55.5 97.1667,65.5 87.5,75.5C 76.5,86.1667 65.5,96.8333 54.5,107.5C 55.8757,87.1554 57.209,66.822 58.5,46.5C 73.326,45.7504 88.1593,45.0837 103,44.5C 107.68,44.5009 112.18,44.8342 116.5,45.5 Z"/></g>
</svg>
